X:7
T:No.40 Jimmy Lions's Highland
C:highland
M:4/4
L:1/8
K:A
A>a g>a e<c A>c|E>d c>d B<E G>B|A>a g>a e<c A>c|
|[1E>B G>B A>E C>E:|[2E>B G>B A>a g>f||
e<c c>e f<d d>f|d>c B>a g<e e>f|e<c c>e f<d d>f|
|[1(3efe (3dcB (3Ace (3agf:|[2(3fga g>b a>f e>c||
